!!!COM: Music21
!!!OTL: march_August
!!!OMV: march_August
**kern
*clefG2
*k[f#]
*
*M3/4
=1
4ee
=
4a
16aLL
16gJ
16aL
16bJJ
8ccL
8eeJ
=
4.gg
8ff#
16eeLL
16ff#J
16eeL
16ddJJ
=
8ccL
8aJ
8.eeL
16ccJk
8ddL
8bJ
=
4a
4g
4ee
=
4a
16aLL
16gJ
16aL
16bJJ
8ccL
8eeJ
=
4.gg
8aa
8.eeL
16ddJk
=
8ccL
8aJ
8eeL
8ddJ
8.bL
16ccJk
=
2a
4ee
=||
4a
16aLL
16gJ
16aL
16bJJ
8ccL
8eeJ
=
4.gg
8ff#
16eeLL
16ff#J
16eeL
16ddJJ
=
8ccL
8aJ
8.eeL
16ccJk
8ddL
8bJ
=
4a
4g
4ee
=
4a
16aLL
16gJ
16aL
16bJJ
8ccL
8eeJ
=
4.gg
8aa
8.eeL
16ddJk
=
8ccL
8aJ
8eeL
8ddJ
8.bL
16ccJk
=
4.a
8gg
8eeL
8ddJ
=||
4cc
8.ggL
16eeJk
8ddL
8ccJ
=
4.b
8gg
8eeL
8ddJ
=
4cc
8.ggL
16eeJk
8ddL
8ccJ
=
4.dd
16ccLL
16ddJJ
8eeL
16ddL
16ccJJ
=
4a
16aLL
16gJ
16aL
16bJJ
8ccL
8eeJ
=
4.gg
8aa
8.eeL
16ddJk
=
8ccL
8aJ
8eeL
8ddJ
8.bL
16ccJk
=
4.a
8gg
8eeL
8ddJ
=||
4cc
8.ggL
16eeJk
8ddL
8ccJ
=
4.b
8gg
8eeL
8ddJ
=
4cc
8.ggL
16eeJk
8ddL
8ccJ
=
4.dd
16ccLL
16ddJJ
8eeL
16ddL
16ccJJ
=
4a
16aLL
16gJ
16aL
16bJJ
8ccL
8eeJ
=
4.gg
8aa
8.eeL
16ddJk
=
8ccL
8aJ
8eeL
8ddJ
8.bL
16ccJk
=
2a
4ryy
=||
*-
